X: 4
T: Lady Anne Montgomery
R: reel
M: 4/4
L: 1/8
K: Dmaj
|:FADA FADA|FAdA BAdA|FADF E2 FE|DB,A,B, D4|
FADA FADA|FAdc BABc|dBAF E2 FE|DB,A,B, D4:||
|:f2fe fede|fedB ABde|f2fe fede|faaf e2de|
f2fe fede|fedB ABde|fded B2dB|Agfe d3B:||


Tune 59	Setting 12500

